icons/editor-scissors-2-filled.svg

<svg viewBox="0 0 25 24"><g clip-path="url(#a)"><path stroke="#000" stroke-linecap="round" stroke-linejoin="round" stroke-width="2" d="m3.8 9.4 16.8 7.4m0-9.6-16.8 7.4m13.8-2.6zm4.9 0zm-17.5-2.4c-2 0-3.6-1.6-3.6-3.6 0-2 1.7-3.6 3.6-3.6 2 0 3.6 1.6 3.6 3.6 0 2-1.6 3.6-3.6 3.6Zm0 12c-2 0-3.6-1.6-3.6-3.6 0-2 1.7-3.6 3.6-3.6 2 0 3.6 1.6 3.6 3.6 0 2-1.6 3.6-3.6 3.6Z"/></g><defs><clipPath id="a"><path fill="#fff" d="m24.3 0 0 24-24 0 0-24z"/></clipPath></defs></svg>

<svg viewBox="0 0 25 24"><g clip-path="url(#a)"><path stroke="#000" stroke-linecap="round" stroke-linejoin="round" stroke-width="2" d="m3.8 9.4 16.8 7.4m0-9.6L3.8 14.6m1.2-5C3 9.6 1.4 8 1.4 6S3.1 2.4 5 2.4 8.6 4 8.6 6 7 9.6 5 9.6m0 12c-2 0-3.6-1.6-3.6-3.6s1.7-3.6 3.6-3.6S8.6 16 8.6 18 7 21.6 5 21.6"/></g><defs><clipPath id="a"><path fill="#fff" d="M24.3 0v24H.3V0z"/></clipPath></defs></svg>
